X:164
T:Morgiania In Spain. JC.163
R:Single Jig
S:John Clare,Poet,Helpstone (1793-1864)
N:No TS in MS.
O:England
A:Northamptonshire
Z:vmp.P. Headford
M:6/8
L:1/8
Q:3/8=120
K:D
F2G A2d|\
F2G A2d|B2B e2d|ced cBA|!
F2G A2d|F2G A2d|B2e cBc|d2d d2||!
f|e2d c2f|e2d c2f|e2d c2B|A2A A2f|!
e2d c2f|e2d c2f|efd cdB|ABG FG” D.C.”E|]

